artwork/resources/intui/icons/shell/toolbar/device-manager@20x20.svg

<svg width="20" height="20" viewBox="0 0 20 20" fill="none" xmlns="http://www.w3.org/2000/svg">
<path d="M5.87535 16.814C6.1678 14.4588 8.4717 11.6563 12 11.6563C15.3949 11.6563 17.8578 14.3422 18.1569 16.8137C18.1901 17.0879 17.9636 17.3125 17.6875 17.3125H6.34375C6.06761 17.3125 5.84132 17.0881 5.87535 16.814Z" stroke="#6C707E" stroke-width="1.5" stroke-linecap="round"/>
<path d="M8.5 12.5L7.5 10.5" stroke="#6C707E" stroke-width="1.5" stroke-linecap="round"/>
<path d="M15.5 12.5L16.5 10.5" stroke="#6C707E" stroke-width="1.5" stroke-linecap="round"/>
<path d="M5.5 5.00002H8.5" stroke="#6C707E" stroke-width="1.5" stroke-linecap="round"/>
<path fill-rule="evenodd" clip-rule="evenodd" d="M3.4725 1.49855C2.14149 1.49855 1.0625 2.57754 1.0625 3.90855V15.6525C1.0625 16.9823 2.13947 18.0605 3.46875 18.0625V16.5625C2.9679 16.5605 2.5625 16.1538 2.5625 15.6525V3.90855C2.5625 3.40597 2.96992 2.99855 3.4725 2.99855H10.34C10.8426 2.99855 11.25 3.40597 11.25 3.90855V9.50002H12.75V3.90855C12.75 2.57754 11.671 1.49855 10.34 1.49855H3.4725Z" fill="#6C707E"/>
</svg>

<svg width="20" height="20" viewBox="0 0 20 20" fill="none" xmlns="http://www.w3.org/2000/svg"><path d="M5.875 16.814c.293-2.355 2.597-5.158 6.125-5.158 3.395 0 5.858 2.686 6.157 5.158.033.274-.193.498-.47.498H6.345c-.276 0-.503-.224-.469-.498zM8.5 12.5l-1-2M15.5 12.5l1-2M5.5 5h3" stroke="#6C707E" stroke-width="1.5" stroke-linecap="round"/><path fill-rule="evenodd" clip-rule="evenodd" d="M3.473 1.499a2.41 2.41 0 0 0-2.41 2.41v11.744a2.41 2.41 0 0 0 2.406 2.41v-1.5a.91.91 0 0 1-.906-.91V3.909a.91.91 0 0 1 .91-.91h6.867a.91.91 0 0 1 .91.91V9.5h1.5V3.909a2.41 2.41 0 0 0-2.41-2.41H3.473z" fill="#6C707E"/></svg>
